icons/vscode-48.svg

<svg width="48" height="48" viewBox="0 0 48 48" fill="none" xmlns="http://www.w3.org/2000/svg">
<path d="M34.474 4.41054C37.6687 1.22155 43.9854 3.81584 43.8176 8.43758C43.9401 16.2614 44 24.0862 44 31.91C44 34.1813 43.9966 36.4526 43.9873 38.7239C44.2287 43.8115 37.3201 46.9909 33.5249 43.5828C24.8638 36.4934 16.2706 29.3199 7.747 22.0651C6.44728 20.9589 5.14949 19.8503 3.85299 18.7402C3.37734 18.3328 3.07043 17.7621 3.01069 17.1412C2.95105 16.52 3.14264 15.9016 3.54184 15.4215C3.941 14.9417 4.51763 14.6364 5.14784 14.5709C5.77837 14.5054 6.40772 14.6875 6.90784 15.0658C8.26991 16.0964 9.63157 17.1274 10.9904 18.1619C19.9038 24.947 28.7498 31.8167 37.5256 38.7672C37.5467 38.7974 37.6228 38.7203 37.5761 38.7239C37.5668 36.4526 37.5634 34.1813 37.5634 31.91C37.5634 24.3584 37.6192 16.8057 37.7331 9.25413C34.1561 12.2929 30.5443 15.2276 27.0003 18.2082C25.6967 19.3023 24.4098 20.3919 23.1094 21.4992C22.6326 21.9048 22.0139 22.1217 21.3807 22.093C20.748 22.0643 20.1546 21.7936 19.7276 21.3383C19.3005 20.8829 19.0743 20.2789 19.0959 19.6557C19.1174 19.0325 19.3854 18.4424 19.8345 18.0072C21.0709 16.8099 22.3009 15.6328 23.5524 14.4534C27.1722 11.0346 30.8698 7.73941 34.474 4.41054Z" fill="black"/>
<path d="M8.14029 28.6251C9.08327 27.7334 10.5431 27.8038 11.4004 28.7845C12.2577 29.765 12.1869 31.2833 11.2442 32.1751L7.86085 35.3752C6.91813 36.2667 5.45818 36.1959 4.60072 35.2158C3.74357 34.2353 3.81167 32.717 4.75395 31.8252L8.14029 28.6251Z" fill="black"/>
</svg>

<svg xmlns="http://www.w3.org/2000/svg" width="48" height="48" viewBox="0 0 48 48"><path d="M34.474 4.411c3.195-3.189 9.511-.595 9.344 4.027.122 7.823.182 15.648.182 23.472 0 2.271-.003 4.543-.013 6.814.242 5.088-6.667 8.267-10.462 4.859A1752.539 1752.539 0 0 1 3.853 18.74a2.41 2.41 0 0 1-.842-1.599 2.34 2.34 0 0 1 .531-1.72 2.41 2.41 0 0 1 1.606-.85c.63-.066 1.26.117 1.76.495a1750.322 1750.322 0 0 1 30.618 23.701c.021.03.097-.047.05-.043-.009-2.271-.013-4.543-.013-6.814 0-7.552.056-15.104.17-22.656-3.577 3.039-7.189 5.974-10.733 8.954a771.74 771.74 0 0 0-3.891 3.291 2.494 2.494 0 0 1-1.728.594 2.411 2.411 0 0 1-1.653-.755 2.33 2.33 0 0 1-.632-1.682 2.413 2.413 0 0 1 .738-1.649 401.512 401.512 0 0 1 3.718-3.554c3.62-3.418 7.318-6.714 10.922-10.042ZM8.14 28.625a2.245 2.245 0 0 1 3.26.16c.858.98.787 2.498-.156 3.39l-3.383 3.2a2.246 2.246 0 0 1-3.26-.159c-.857-.981-.789-2.499.153-3.391l3.386-3.2Z"/></svg>
